X: 1
T: Pride Of The West
M: 6/8
L: 1/8
R: jig
K: Gmaj
DGG GAG|F2D D2c|~B3 GBd|cAG ~F3|
D2G GAG|F2DD Bc|ded cAF|1 AGF GFE:|2 AGF GBc||
dgg dff|dgg cBc|dgg dff|GAB ABc|
def gab|agf g2e|fed cAF|1 AGF GBc:|2 AGF GFE||
